64x64/apps/conky-manager.svg

<svg height="64" width="64" xmlns="http://www.w3.org/2000/svg"><rect height="40" opacity=".2" rx="1.333" ry="1.429" width="8" x="51" y="13"/><rect height="40" opacity=".2" rx="1.333" ry="1.429" width="8" x="29" y="13"/><g fill="#c2352a"><rect height="40" rx="1.333" ry="1.429" width="8" x="51" y="12"/><rect height="40" rx="1.333" ry="1.429" width="8" x="29" y="12"/><rect height="40" rx="1.333" ry="1.429" width="8" x="5" y="12"/></g><path d="m6.43 13c-.792 0-1.43.593-1.43 1.332v5.336c0 .739.638 1.332 1.43 1.332h17.14c.792 0 1.43-.593 1.43-1.332v-5.336c0-.739-.638-1.332-1.43-1.332zm24.523 0a1.953 1.621 0 0 0 -1.691 2.43l6.523 9.379 6.524 9.378a1.953 1.621 0 0 0 1.601.813 1.953 1.621 0 0 0 1.781-.813l6.524-9.378 6.523-9.38a1.953 1.621 0 0 0 -1.691-2.429zm-24.523 32c-.792 0-1.43.593-1.43 1.332v5.336c0 .739.638 1.332 1.43 1.332h17.14c.792 0 1.43-.593 1.43-1.332v-5.336c0-.739-.638-1.332-1.43-1.332z" opacity=".2"/><rect fill="#d8564d" height="20" rx="1.333" ry="1.429" transform="rotate(90)" width="8" x="12" y="-25"/><rect fill="#d8564d" height="20" rx="1.333" ry="1.429" transform="rotate(90)" width="8" x="44" y="-25"/><path d="m30.953 12a1.953 1.621 0 0 0 -1.691 2.432l6.525 9.378 6.523 9.378a1.953 1.621 0 0 0 1.6.81 1.953 1.621 0 0 0 1.782-.81l6.523-9.378 6.523-9.378a1.953 1.621 0 0 0 -1.69-2.432h-26.096z" fill="#d8564d"/><path d="m6.43 12c-.792 0-1.43.593-1.43 1.332v1c0-.739.638-1.332 1.43-1.332h17.14c.792 0 1.43.593 1.43 1.332v-1c0-.739-.638-1.332-1.43-1.332zm24.523 0a1.953 1.621 0 0 0 -1.853 2.121 1.953 1.621 0 0 1 1.853-1.121h26.094a1.953 1.621 0 0 1 1.855 1.123 1.953 1.621 0 0 0 -1.855-2.123zm-24.523 32c-.792 0-1.43.593-1.43 1.332v1c0-.739.638-1.332 1.43-1.332h17.14c.792 0 1.43.593 1.43 1.332v-1c0-.739-.638-1.332-1.43-1.332z" fill="#f4f4f7" opacity=".2"/></svg>

<svg xmlns="http://www.w3.org/2000/svg" width="64" height="64" version="1"><rect style="opacity:.2" width="8" height="40" x="51" y="13" rx="1.333" ry="1.429"/><rect style="opacity:.2" width="8" height="40" x="29" y="13" rx="1.333" ry="1.429"/><rect style="fill:#c2352a" width="8" height="40" x="51" y="12" rx="1.333" ry="1.429"/><rect style="fill:#c2352a" width="8" height="40" x="29" y="12" rx="1.333" ry="1.429"/><rect style="fill:#c2352a" width="8" height="40" x="5" y="12" rx="1.333" ry="1.429"/><path style="opacity:.2" d="M6.43 13C5.638 13 5 13.593 5 14.332v5.336C5 20.407 5.638 21 6.43 21h17.14c.792 0 1.43-.593 1.43-1.332v-5.336c0-.739-.638-1.332-1.43-1.332H6.43zm24.523 0a1.953 1.621 0 0 0-1.691 2.43l6.523 9.379 6.524 9.378A1.953 1.621 0 0 0 43.91 35a1.953 1.621 0 0 0 1.781-.813l6.524-9.378 6.523-9.38A1.953 1.621 0 0 0 57.047 13H30.953zM6.43 45C5.638 45 5 45.593 5 46.332v5.336C5 52.407 5.638 53 6.43 53h17.14c.792 0 1.43-.593 1.43-1.332v-5.336c0-.739-.638-1.332-1.43-1.332H6.43z"/><rect style="fill:#d8564d" width="8" height="20" x="12" y="-25" rx="1.333" ry="1.429" transform="rotate(90)"/><rect style="fill:#d8564d" width="8" height="20" x="44" y="-25" rx="1.333" ry="1.429" transform="rotate(90)"/><path style="fill:#d8564d" d="M30.953 12a1.953 1.621 0 0 0-1.691 2.432l6.525 9.378 6.523 9.378a1.953 1.621 0 0 0 1.6.81 1.953 1.621 0 0 0 1.782-.81l6.523-9.378 6.523-9.378A1.953 1.621 0 0 0 57.048 12H30.952z"/><path style="opacity:.2;fill:#f4f4f7" d="M6.43 12C5.638 12 5 12.593 5 13.332v1C5 13.593 5.638 13 6.43 13h17.14c.792 0 1.43.593 1.43 1.332v-1c0-.739-.638-1.332-1.43-1.332H6.43zm24.523 0a1.953 1.621 0 0 0-1.853 2.121A1.953 1.621 0 0 1 30.953 13h26.094a1.953 1.621 0 0 1 1.855 1.123A1.953 1.621 0 0 0 57.047 12H30.953zM6.43 44C5.638 44 5 44.593 5 45.332v1C5 45.593 5.638 45 6.43 45h17.14c.792 0 1.43.593 1.43 1.332v-1c0-.739-.638-1.332-1.43-1.332H6.43z"/></svg>
